Sweet-Rainbow/icons/applets-screenshooter.svg

<?xml version="1.0" encoding="UTF-8" standalone="no"?>
<!-- Generator: Gravit.io -->

<svg
   xmlns:dc="http://purl.org/dc/elements/1.1/"
   xmlns:cc="http://creativecommons.org/ns#"
   xmlns:rdf="http://www.w3.org/1999/02/22-rdf-syntax-ns#"
   xmlns:svg="http://www.w3.org/2000/svg"
   xmlns="http://www.w3.org/2000/svg"
   xmlns:sodipodi="http://sodipodi.sourceforge.net/DTD/sodipodi-0.dtd"
   xmlns:inkscape="http://www.inkscape.org/namespaces/inkscape"
   style="isolation:isolate"
   viewBox="0 0 36 36"
   width="48"
   height="48"
   version="1.1"
   id="svg11"
   sodipodi:docname="applets-screenshooter.svg"
   inkscape:version="0.92.4 (5da689c313, 2019-01-14)">
  <metadata
     id="metadata17">
    <rdf:RDF>
      <cc:Work
         rdf:about="">
        <dc:format>image/svg+xml</dc:format>
        <dc:type
           rdf:resource="http://purl.org/dc/dcmitype/StillImage" />
        <dc:title></dc:title>
      </cc:Work>
    </rdf:RDF>
  </metadata>
  <defs
     id="defs15" />
  <sodipodi:namedview
     pagecolor="#ffffff"
     bordercolor="#666666"
     borderopacity="1"
     objecttolerance="10"
     gridtolerance="10"
     guidetolerance="10"
     inkscape:pageopacity="0"
     inkscape:pageshadow="2"
     inkscape:window-width="640"
     inkscape:window-height="480"
     id="namedview13"
     showgrid="false"
     inkscape:zoom="29.365243"
     inkscape:cx="25.325443"
     inkscape:cy="32"
     inkscape:current-layer="svg11"
     units="px" />
  <linearGradient
     id="_lgradient_17"
     x1="-0.078021362"
     y1="0.17387"
     x2="0.90886897"
     y2="0.92585009"
     gradientTransform="matrix(44.964,0,0,39,1.518,4.5)"
     gradientUnits="userSpaceOnUse">
    <stop
       offset="2.1739130434782608%"
       stop-opacity="1"
       style="stop-color:rgb(242,79,92)"
       id="stop2" />
    <stop
       offset="49.56521739130435%"
       stop-opacity="1"
       style="stop-color:rgb(208,103,207)"
       id="stop4" />
    <stop
       offset="98.26086956521739%"
       stop-opacity="1"
       style="stop-color:rgb(49,193,233)"
       id="stop6" />
  </linearGradient>
  <g
     id="g825"
     transform="matrix(0.80064051,0,0,0.80064051,-1.2153722,-1.2153722)">
    <path
       id="path9"
       d="m 32.315,40.936 h 0.988 8.011 c 2.852,0 5.168,-2.316 5.168,-5.168 V 17.485 13.544 c 0,-2.852 -2.316,-5.168 -5.168,-5.168 H 13.147 v 0 V 8.118 6.567 C 13.147,5.426 12.22,4.5 11.079,4.5 H 5.911 C 4.77,4.5 3.844,5.426 3.844,6.567 v 1.551 1.11 c -1.401,0.925 -2.326,2.514 -2.326,4.316 v 1.809 0 c 0,0.999 0.811,1.809 1.809,1.809 v 0 c 0.998,0 1.809,-0.81 1.809,-1.809 v 0 0 0 0 -0.258 c 0,-1.712 1.389,-3.101 3.101,-3.101 h 31.526 c 1.712,0 3.101,1.389 3.101,3.101 v 8.528 h -7.031 c -0.556,-0.937 -1.23,-1.808 -2.013,-2.59 -2.467,-2.459 -5.816,-3.85 -9.3,-3.85 -3.493,0 -6.842,1.391 -9.31,3.85 -0.782,0.782 -1.455,1.653 -2.01,2.59 H 5.136 v 0 0 0 0 -1.034 0 c 0,-0.998 -0.811,-1.809 -1.809,-1.809 v 0 c -0.998,0 -1.809,0.811 -1.809,1.809 v 0 13.179 c 0,2.852 2.316,5.168 5.168,5.168 h 8.011 2.019 c 2.246,1.654 4.978,2.564 7.804,2.564 2.819,0 5.549,-0.91 7.795,-2.564 z m 3.356,-3.618 h 4.092 c 1.712,0 3.101,-1.389 3.101,-3.101 v -7.494 0 0 H 37.17 c 0.334,1.167 0.508,2.384 0.508,3.619 0,2.484 -0.707,4.9 -2.007,6.976 z m -22.309,0 H 8.237 c -1.712,0 -3.101,-1.389 -3.101,-3.101 v -7.494 h 6.73 c -0.332,1.167 -0.505,2.384 -0.505,3.619 v 0 c 0,2.484 0.703,4.9 2.001,6.976 z M 10.046,8.376 H 6.945 V 8.118 7.601 h 3.101 v 0.517 z m 13.303,19.66 v 0 c -0.508,0.257 -1.131,0.053 -1.39,-0.455 v 0 c -0.26,-0.507 -0.059,-1.128 0.449,-1.385 v 0 c 0.651,-0.33 1.375,-0.506 2.109,-0.506 1.064,0 2.098,0.362 2.925,1.033 0.827,0.662 1.395,1.592 1.623,2.636 v 0 c 0.12,0.559 -0.235,1.111 -0.791,1.23 v 0 c -0.556,0.12 -1.11,-0.236 -1.235,-0.796 v 0 c -0.124,-0.578 -0.445,-1.095 -0.899,-1.467 -0.455,-0.362 -1.034,-0.569 -1.623,-0.569 -0.403,0 -0.806,0.093 -1.168,0.279 z m 2.977,8.507 v 0 c 0.684,-0.199 1.402,0.194 1.602,0.879 v 0 c 0.2,0.684 -0.199,1.402 -0.889,1.602 v 0 c -0.817,0.238 -1.664,0.362 -2.522,0.362 -2.398,0 -4.703,-0.951 -6.398,-2.646 -1.696,-1.696 -2.647,-4.001 -2.647,-6.399 0,-2.398 0.951,-4.703 2.647,-6.398 1.695,-1.695 4,-2.646 6.398,-2.646 2.398,0 4.703,0.951 6.398,2.646 1.695,1.695 2.646,4 2.646,6.398 0,1.695 -0.475,3.36 -1.374,4.796 v 0 c -0.377,0.605 -1.174,0.788 -1.778,0.409 v 0 c -0.605,-0.38 -0.79,-1.179 -0.414,-1.783 v 0 c 0.641,-1.024 0.982,-2.212 0.982,-3.422 0,-1.716 -0.682,-3.359 -1.891,-4.568 -1.21,-1.21 -2.853,-1.892 -4.569,-1.892 -1.716,0 -3.36,0.682 -4.569,1.892 -1.209,1.209 -1.891,2.852 -1.891,4.568 0,1.716 0.682,3.36 1.891,4.569 1.209,1.209 2.853,1.892 4.569,1.892 0.61,0 1.22,-0.083 1.809,-0.259 z M 34.337,14.32 h 5.168 c 0.57,0 1.033,0.463 1.033,1.033 v 1.034 c 0,0.57 -0.463,1.034 -1.033,1.034 h -5.168 c -0.571,0 -1.034,-0.464 -1.034,-1.034 v -1.034 c 0,-0.57 0.463,-1.033 1.034,-1.033 z M 13.905,30.342 c 0,-2.815 1.119,-5.52 3.103,-7.504 1.992,-1.992 4.697,-3.111 7.512,-3.111 2.814,0 5.51,1.119 7.503,3.111 1.992,1.984 3.111,4.689 3.111,7.504 0,2.815 -1.119,5.519 -3.111,7.503 -1.993,1.992 -4.689,3.112 -7.503,3.112 -2.815,0 -5.52,-1.12 -7.512,-3.112 -1.984,-1.984 -3.103,-4.688 -3.103,-7.503 z"
       inkscape:connector-curvature="0"
       style="fill:url(#_lgradient_17);fill-rule:evenodd" />
  </g>
</svg>

<?xml version="1.0" encoding="UTF-8" standalone="no"?><!-- Generator: Gravit.io --><svg xmlns="http://www.w3.org/2000/svg" xmlns:xlink="http://www.w3.org/1999/xlink" style="isolation:isolate" viewBox="0 0 48 48" width="48pt" height="48pt"><linearGradient id="_lgradient_17" x1="-0.07802135949316602" y1="0.17386999786096877" x2="0.9088689648715447" y2="0.925850096256404" gradientTransform="matrix(44.964,0,0,39,1.518,4.5)" gradientUnits="userSpaceOnUse"><stop offset="2.1739130434782608%" stop-opacity="1" style="stop-color:rgb(242,79,92)"/><stop offset="49.56521739130435%" stop-opacity="1" style="stop-color:rgb(208,103,207)"/><stop offset="98.26086956521739%" stop-opacity="1" style="stop-color:rgb(49,193,233)"/></linearGradient><path d=" M 32.315 40.936 L 33.303 40.936 L 41.314 40.936 C 44.166 40.936 46.482 38.62 46.482 35.768 L 46.482 17.485 L 46.482 13.544 C 46.482 10.692 44.166 8.376 41.314 8.376 L 13.147 8.376 L 13.147 8.376 L 13.147 8.118 L 13.147 6.567 C 13.147 5.426 12.22 4.5 11.079 4.5 L 5.911 4.5 C 4.77 4.5 3.844 5.426 3.844 6.567 L 3.844 8.118 L 3.844 9.228 C 2.443 10.153 1.518 11.742 1.518 13.544 L 1.518 15.353 L 1.518 15.353 C 1.518 16.352 2.329 17.162 3.327 17.162 L 3.327 17.162 C 4.325 17.162 5.136 16.352 5.136 15.353 L 5.136 15.353 L 5.136 15.353 L 5.136 15.353 L 5.136 15.353 L 5.136 15.095 C 5.136 13.383 6.525 11.994 8.237 11.994 L 39.763 11.994 C 41.475 11.994 42.864 13.383 42.864 15.095 L 42.864 23.623 L 35.833 23.623 C 35.277 22.686 34.603 21.815 33.82 21.033 C 31.353 18.574 28.004 17.183 24.52 17.183 C 21.027 17.183 17.678 18.574 15.21 21.033 C 14.428 21.815 13.755 22.686 13.2 23.623 L 5.136 23.623 L 5.136 23.623 L 5.136 23.623 L 5.136 23.623 L 5.136 23.623 L 5.136 22.589 L 5.136 22.589 C 5.136 21.591 4.325 20.78 3.327 20.78 L 3.327 20.78 C 2.329 20.78 1.518 21.591 1.518 22.589 L 1.518 22.589 L 1.518 35.768 C 1.518 38.62 3.834 40.936 6.686 40.936 L 14.697 40.936 L 16.716 40.936 C 18.962 42.59 21.694 43.5 24.52 43.5 C 27.339 43.5 30.069 42.59 32.315 40.936 Z  M 35.671 37.318 L 39.763 37.318 C 41.475 37.318 42.864 35.929 42.864 34.217 L 42.864 26.723 L 42.864 26.723 L 42.864 26.723 L 37.17 26.723 C 37.504 27.89 37.678 29.107 37.678 30.342 C 37.678 32.826 36.971 35.242 35.671 37.318 Z  M 13.362 37.318 L 8.237 37.318 C 6.525 37.318 5.136 35.929 5.136 34.217 L 5.136 26.723 L 11.866 26.723 C 11.534 27.89 11.361 29.107 11.361 30.342 L 11.361 30.342 C 11.361 32.826 12.064 35.242 13.362 37.318 Z  M 10.046 8.376 L 6.945 8.376 L 6.945 8.118 L 6.945 7.601 L 10.046 7.601 L 10.046 8.118 L 10.046 8.376 L 10.046 8.376 Z  M 23.349 28.036 L 23.349 28.036 C 22.841 28.293 22.218 28.089 21.959 27.581 L 21.959 27.581 C 21.699 27.074 21.9 26.453 22.408 26.196 L 22.408 26.196 C 23.059 25.866 23.783 25.69 24.517 25.69 C 25.581 25.69 26.615 26.052 27.442 26.723 C 28.269 27.385 28.837 28.315 29.065 29.359 L 29.065 29.359 C 29.185 29.918 28.83 30.47 28.274 30.589 L 28.274 30.589 C 27.718 30.709 27.164 30.353 27.039 29.793 L 27.039 29.793 C 26.915 29.215 26.594 28.698 26.14 28.326 C 25.685 27.964 25.106 27.757 24.517 27.757 C 24.114 27.757 23.711 27.85 23.349 28.036 L 23.349 28.036 L 23.349 28.036 L 23.349 28.036 L 23.349 28.036 L 23.349 28.036 L 23.349 28.036 L 23.349 28.036 Z  M 26.326 36.543 L 26.326 36.543 C 27.01 36.344 27.728 36.737 27.928 37.422 L 27.928 37.422 C 28.128 38.106 27.729 38.824 27.039 39.024 L 27.039 39.024 C 26.222 39.262 25.375 39.386 24.517 39.386 C 22.119 39.386 19.814 38.435 18.119 36.74 C 16.423 35.044 15.472 32.739 15.472 30.341 C 15.472 27.943 16.423 25.638 18.119 23.943 C 19.814 22.248 22.119 21.297 24.517 21.297 C 26.915 21.297 29.22 22.248 30.915 23.943 C 32.61 25.638 33.561 27.943 33.561 30.341 C 33.561 32.036 33.086 33.701 32.187 35.137 L 32.187 35.137 C 31.81 35.742 31.013 35.925 30.409 35.546 L 30.409 35.546 C 29.804 35.166 29.619 34.367 29.995 33.763 L 29.995 33.763 C 30.636 32.739 30.977 31.551 30.977 30.341 C 30.977 28.625 30.295 26.982 29.086 25.773 C 27.876 24.563 26.233 23.881 24.517 23.881 C 22.801 23.881 21.157 24.563 19.948 25.773 C 18.739 26.982 18.057 28.625 18.057 30.341 C 18.057 32.057 18.739 33.701 19.948 34.91 C 21.157 36.119 22.801 36.802 24.517 36.802 C 25.127 36.802 25.737 36.719 26.326 36.543 L 26.326 36.543 L 26.326 36.543 L 26.326 36.543 L 26.326 36.543 L 26.326 36.543 L 26.326 36.543 L 26.326 36.543 Z  M 34.337 14.32 L 39.505 14.32 C 40.075 14.32 40.538 14.783 40.538 15.353 L 40.538 16.387 C 40.538 16.957 40.075 17.421 39.505 17.421 L 34.337 17.421 C 33.766 17.421 33.303 16.957 33.303 16.387 L 33.303 15.353 C 33.303 14.783 33.766 14.32 34.337 14.32 L 34.337 14.32 L 34.337 14.32 Z  M 13.905 30.342 C 13.905 27.527 15.024 24.822 17.008 22.838 C 19 20.846 21.705 19.727 24.52 19.727 C 27.334 19.727 30.03 20.846 32.023 22.838 C 34.015 24.822 35.134 27.527 35.134 30.342 C 35.134 33.157 34.015 35.861 32.023 37.845 C 30.03 39.837 27.334 40.957 24.52 40.957 C 21.705 40.957 19 39.837 17.008 37.845 C 15.024 35.861 13.905 33.157 13.905 30.342 L 13.905 30.342 Z " fill-rule="evenodd" fill="url(#_lgradient_17)"/></svg>
